X: 1
T: Colclough's
Z: CaoimhinR
S: https://thesession.org/tunes/15792#setting29706
R: hornpipe
M: 4/4
L: 1/8
K: Gmaj
(3(DEF) |:Gz GF GABc |dBcA GABc |dBgf edcB |c.A.AG AcBA|
G2 GF GABc |dBcA G{eg}edc |Bd{d}BG AcAF |1GBAF G2 (3(DEF):|2GBAF G2 (3def||
.gdBd gbaf |gdBd {g}eg{fg}fe |dBcA Bd{eg}eg |{fg}f2d2d2 zf |
gdBd gdge |dBGB cA{g}ec |{g}ecdB cAGF |GBAF G3 z :|
dc |BGdG BGdG |cA{g}eA cA{g}eA |BGdG BGdB |AGFE D2dc |
BGdG BGdG |cA{g}eA cA{g}ea|gfg{g}e dBcF |1 G.d{d}BA G2 (3def :||2GBAF Gz (3(DEF)||
